img/icon user.svg

<svg width="75" height="69" viewBox="0 0 75 69" fill="none" xmlns="http://www.w3.org/2000/svg">
<ellipse cx="43" cy="32.5" rx="32" ry="31.5" fill="#1D7FA9" fill-opacity="0.21"/>
<path d="M12.375 24.587C12.375 30.3226 16.5138 34.6495 22 34.6495C27.4862 34.6495 31.625 30.3226 31.625 24.587C31.625 18.8514 27.4862 14.5245 22 14.5245C16.5138 14.5245 12.375 18.8514 12.375 24.587ZM52.25 23H46.75V31.625H38.5V37.375H46.75V46H52.25V37.375H60.5V31.625H52.25V23ZM11 54.625H38.5V51.75C38.5 43.8236 32.3317 37.375 24.75 37.375H19.25C11.6683 37.375 5.5 43.8236 5.5 51.75V54.625H11Z" fill="#1D7FA9" fill-opacity="0.81"/>
</svg>

<svg width="75" height="69" fill="none" xmlns="http://www.w3.org/2000/svg"><ellipse cx="43" cy="32.5" rx="32" ry="31.5" fill="#1D7FA9" fill-opacity=".21"/><path d="M12.375 24.587c0 5.736 4.139 10.063 9.625 10.063s9.625-4.327 9.625-10.063c0-5.736-4.139-10.063-9.625-10.063s-9.625 4.327-9.625 10.063ZM52.25 23h-5.5v8.625H38.5v5.75h8.25V46h5.5v-8.625h8.25v-5.75h-8.25V23ZM11 54.625h27.5V51.75c0-7.926-6.168-14.375-13.75-14.375h-5.5c-7.582 0-13.75 6.449-13.75 14.375v2.875H11Z" fill="#1D7FA9" fill-opacity=".81"/></svg>
